icons/desktop/20/plugin-20.svg

<svg width="20" height="20" viewBox="0 0 20 20" fill="none" xmlns="http://www.w3.org/2000/svg">
<path fill-rule="evenodd" clip-rule="evenodd" d="M14.25 2C14.577 2 15.04 2.0247 15.582 2.1377C16.2669 2.28066 16.7498 2.90273 16.75 3.60254V4.90527C16.9198 4.92559 17.0909 4.94466 17.2627 4.9668C18.8205 5.16758 20 6.4946 20 8.07227V13.9297C20 15.489 18.854 16.8265 17.292 17.0293C15.1258 17.3096 12.6793 17.5 10 17.5C7.86922 17.5 5.42458 17.3805 2.7373 17.0342C1.17954 16.8334 0 15.5064 0 13.9287V8.07129C0 6.51198 1.14602 5.17452 2.70801 4.97168C2.88642 4.94859 3.06782 4.92708 3.25 4.90527V3.60547C3.25 2.88947 3.75112 2.27386 4.45312 2.13086C4.83309 2.05388 5.26906 2 5.75 2C6.07699 2 6.54004 2.0247 7.08203 2.1377C7.76688 2.28066 8.24979 2.90273 8.25 3.60254V4.5293C8.82148 4.51161 9.40496 4.50098 10 4.50098C10.5619 4.50098 11.1457 4.50973 11.75 4.52832V3.60547C11.75 2.88947 12.2511 2.27386 12.9531 2.13086C13.3331 2.05388 13.7691 2 14.25 2ZM10 6.25098C7.40348 6.25098 5.03329 6.43535 2.93359 6.70703C2.25983 6.79442 1.75 7.37477 1.75 8.07129V13.9287C1.75 14.6191 2.2687 15.2086 2.96094 15.2979C5.56556 15.6335 7.93485 15.75 10 15.75C12.5965 15.75 14.9667 15.5656 17.0664 15.2939C17.7402 15.2066 18.25 14.6262 18.25 13.9297V8.07227C18.25 7.38193 17.7313 6.79235 17.0391 6.70312C14.4344 6.36746 12.0652 6.25098 10 6.25098Z" fill="black"/>
</svg>

<!-- This Source Code Form is subject to the terms of the Mozilla Public
   - License, v. 2.0. If a copy of the MPL was not distributed with this
   - file, You can obtain one at http://mozilla.org/MPL/2.0/. -->
<svg xmlns="http://www.w3.org/2000/svg" width="20" height="20" fill="context-fill" fill-opacity="context-fill-opacity" viewBox="0 0 20 20">
    <path fill-rule="evenodd" d="M14.25 2c.327 0 .79.025 1.332.138.685.143 1.168.765 1.168 1.465v1.302q.254.03.513.062A3.14 3.14 0 0 1 20 8.072v5.858a3.12 3.12 0 0 1-2.708 3.1 56.8 56.8 0 0 1-14.555.004A3.14 3.14 0 0 1 0 13.93V8.07a3.12 3.12 0 0 1 2.708-3.1l.542-.066v-1.3c0-.716.501-1.331 1.203-1.474a6.5 6.5 0 0 1 2.629.007c.685.143 1.168.765 1.168 1.465v.926a57 57 0 0 1 3.5 0v-.924c0-.716.501-1.331 1.203-1.474.38-.077.816-.131 1.297-.131M10 6.251c-2.597 0-4.967.184-7.066.456A1.37 1.37 0 0 0 1.75 8.071v5.858c0 .69.519 1.28 1.21 1.369a55 55 0 0 0 14.106-.004 1.37 1.37 0 0 0 1.184-1.364V8.072c0-.69-.519-1.28-1.21-1.369A55 55 0 0 0 10 6.251" clip-rule="evenodd" />
</svg>
